other/dictionary_cs_fr.svg

<svg xmlns="http://www.w3.org/2000/svg" viewBox="0 0 48 48"><defs><style>.a{fill:none;stroke:#fff;stroke-linecap:round;stroke-linejoin:round;}</style></defs>
  <path
     d="M8.4,6.5v35a2,2,0,0,0,2,2h2.33V4.5H10.4A2,2,0,0,0,8.4,6.5Z"
     class="a" />
  <path
     d="M12.73,4.5v39H37.6a2,2,0,0,0,2-2V6.5a2,2,0,0,0-2-2Z"
     class="a" />
  <g>
    <path
       class="a"
       d="M19.928954 36.049829"
       />
    <path class="a"
       d="M19.928954 28.049829C19.928954 28.049829 23.928954 28.049829 23.928954 28.049829"
       />
    <path class="a"
       d="M19.928954 32.049829C19.928954 32.049829 22.528954 32.049829 22.528954 32.049829"
       />
    <path class="a"
       d="M19.928954 28.049829C19.928954 28.049829 19.928954 36.049829 19.928954 36.049829"
       />
  </g>
    <path
       class="a"
       d="M26.88997 35.643049C26.88997 35.643049 26.88997 27.643049 26.88997 27.643049C26.88997 27.643049 29.48997 27.643049 29.48997 27.643049C30.98997 27.643049 32.18997 28.843049 32.18997 30.343049C32.18997 31.843049 30.98997 33.043049 29.48997 33.043049C29.48997 33.043049 26.88997 33.043049 26.88997 33.043049"
       />
    <path class="a"
        d="M29.58997 32.943052C29.58997 32.943052 32.18997 35.643049 32.18997 35.643049"
    />
    <path
       class="a"
       d="M26.5137 18.878642C27.0137 19.478642 27.6137 19.778642 28.5137 19.778642C28.5137 19.778642 29.7137 19.778642 29.7137 19.778642C30.8137 19.778642 31.7137 18.878642 31.7137 17.778642C31.7137 17.778642 31.7137 17.778642 31.7137 17.778642C31.7137 16.678642 30.8137 15.778642 29.7137 15.778642C29.7137 15.778642 28.4137 15.778642 28.4137 15.778642C27.3137 15.778642 26.4137 14.878642 26.4137 13.778642C26.4137 13.778642 26.4137 13.778642 26.4137 13.778642C26.4137 12.678642 27.3137 11.778642 28.4137 11.778642C28.4137 11.778642 29.6137 11.778642 29.6137 11.778642C30.5137 11.778642 31.1137 11.978642 31.6137 12.678642"
       />
  <path
     class="a"
     d="M24.020479 17.078644C24.020479 17.078644 24.020479 17.078644 24.020479 17.078644C24.020479 18.578644 22.820479 19.778644 21.320479 19.778644C21.320479 19.778644 21.320479 19.778644 21.320479 19.778644C19.820479 19.778644 18.620479 18.578644 18.620479 17.078644C18.620479 17.078644 18.620479 14.378644 18.620479 14.378644C18.620479 12.878644 19.820479 11.678644 21.320479 11.678644C21.320479 11.678644 21.320479 11.678644 21.320479 11.678644C22.820479 11.678644 23.920479 12.878644 23.920479 14.378644C23.920479 14.378644 23.920479 14.378644 23.920479 14.378644"
     />
</svg>

<svg xmlns="http://www.w3.org/2000/svg" viewBox="0 0 48 48"><defs><style>.a{fill:none;stroke:#fff;stroke-linecap:round;stroke-linejoin:round}</style></defs><path d="M8.4 6.5v35a2 2 0 0 0 2 2h2.33v-39H10.4a2 2 0 0 0-2 2ZM12.73 4.5v39H37.6a2 2 0 0 0 2-2v-35a2 2 0 0 0-2-2ZM19.929 28.05h4M19.929 32.05h2.6M19.929 28.05v8" class="a"/><path class="a" d="M26.89 35.643v-8h2.6c1.5 0 2.7 1.2 2.7 2.7 0 1.5-1.2 2.7-2.7 2.7h-2.6M29.59 32.943l2.6 2.7M26.514 18.879c.5.6 1.1.9 2 .9h1.2c1.1 0 2-.9 2-2 0 0 0 0 0 0 0-1.1-.9-2-2-2h-1.3c-1.1 0-2-.9-2-2 0 0 0 0 0 0 0-1.1.9-2 2-2h1.2c.9 0 1.5.2 2 .9M24.02 17.079s0 0 0 0c0 1.5-1.2 2.7-2.7 2.7 0 0 0 0 0 0-1.5 0-2.7-1.2-2.7-2.7v-2.7c0-1.5 1.2-2.7 2.7-2.7 0 0 0 0 0 0 1.5 0 2.6 1.2 2.6 2.7 0 0 0 0 0 0"/></svg>
